!!!OTL: Der Tod als Schnitter
!!!ARE: Europa, Mitteleuropa, Deutschland
!!!SCT: A0650
!!!YEM: Copyright 1995, estate of Helmut Schaffrath.
**kern
*ICvox
*Ivox
!! Mixed meters:  3/2; 2/2
*M2/2
*k[b-e-]
*g:
{2g
=1
1g
2b-
=2
1a
2g
=3
1fn
2e-
=4
1d}
=5
{2dd
=6
*M3/2
2.dd
4cc
2b-
=7
2.cc
4b-
2a
=8
1.b-
=9
*M2/2
1r}
=10
{2g
=11
*M3/2
1g
2b-
=12
1a
2g
=13
1fn
2e-
=14
*M2/2
1d}
=15
{2dd
=16
*M3/2
2.dd
4cc
2b-
=17
2.cc
4b-
2a
=18
1.b-
=19
*M2/2
1r}
=20
{2dd
=21
*M3/2
2.dd
4cc
2dd
=22
2.b-
4cc
2dd
=23
2.cc
4b-
2cc
=24
*M2/2
2.a
4b-}
=25
{2cc
=26
*M3/2
2.b-
4a
2b-
=27
2.g
4a
2b-
=28
2.a
4g
2a
=29
1f#
2d}
=30
*M2/2
{2dd
4cc
4b-
=31
4a
4a
2g
=32
1r}
==
!!!AGN: Romanze, Ballade, Lied, religioeses Lied
!!  Fl. Blatt von 1638 und oefter
!!!ONB: ESAC (Essen Associative Code) Database: ALTDEU
!!!AMT: irregular
!!!AIN: vox
!!!EED: Helmut Schaffrath
!!!EEV: 1.0
*-
